libs/ui/packages/crypto-icons/src/svg/PPT.svg

<svg width="24" height="24" viewBox="0 0 24 24" fill="none">
<path d="M12.0368 6.23102C11.0498 6.23102 10.2495 5.68127 10.2495 5.00252C10.2495 4.32377 11.0498 3.77402 12.0368 3.77402C13.0238 3.77402 13.8233 4.32377 13.8233 5.00252C13.8233 5.68127 13.0238 6.23102 12.0368 6.23102ZM11.112 19.944V6.82202H15.096C15.2438 6.82202 15.348 6.93227 15.348 7.08002V14.361C15.348 14.508 15.243 14.634 15.096 14.634H12.9V19.944C12.9 20.0918 12.7875 20.226 12.6398 20.226H11.3888C11.3155 20.2232 11.2461 20.1925 11.1947 20.1402C11.1433 20.088 11.1137 20.0181 11.112 19.9448V19.944ZM10.44 14.6333H8.93254C8.85965 14.6325 8.78985 14.6038 8.73761 14.5529C8.68538 14.5021 8.65473 14.4331 8.65204 14.3603V7.08002C8.65204 6.93227 8.78479 6.82202 8.93179 6.82202H10.44V14.634V14.6333Z" fill="#152743"/>
</svg>

<svg width="24" height="24" viewBox="0 0 24 24" fill="none"><path fill="#152743" d="M12.037 6.231c-.987 0-1.788-.55-1.788-1.228 0-.68.8-1.229 1.788-1.229.987 0 1.786.55 1.786 1.229 0 .678-.8 1.228-1.786 1.228m-.925 13.713V6.822h3.984c.148 0 .252.11.252.258v7.281c0 .147-.105.273-.252.273H12.9v5.31c0 .148-.113.282-.26.282h-1.251a.287.287 0 0 1-.277-.281zm-.672-5.31H8.933a.284.284 0 0 1-.281-.274V7.08c0-.148.133-.258.28-.258h1.508z"/></svg>
